icons/cloud.svg

<svg xmlns="http://www.w3.org/2000/svg" viewBox="0 0 24 24" fill="currentColor">
  <path d="M7.75 10c0-2.38579 1.86421-4.25 4.25-4.25 2.3858 0 4.25 1.86421 4.25 4.25 0 .4142.3358.75.75.75 1.7858 0 3.25 1.4642 3.25 3.25 0 .9148-.3286 1.6972-.9439 2.2356l-.0188.0164-.0176.0177c-.5815.5814-1.3979.9803-2.2697.9803H7c-1.78579 0-3.25-1.4642-3.25-3.25 0-.9148.32864-1.6972.94388-2.2356l.01879-.0164.01766-.0177C5.3118 11.1489 6.12815 10.75 7 10.75c.41421 0 .75-.3358.75-.75Zm-1.46017-.69247C6.62391 6.42901 9.02047 4.25 12 4.25c2.978 0 5.3737 2.17682 5.7097 5.05318C19.9899 9.64795 21.75 11.6268 21.75 14c0 1.277-.4653 2.4872-1.4372 3.3478-.8179.8096-1.9941 1.4022-3.3128 1.4022H7c-2.61421 0-4.75-2.1358-4.75-4.75 0-1.277.46533-2.4872 1.43724-3.3478.66779-.66106 1.5745-1.17743 2.60259-1.34467Z"/>
</svg>

<svg width="24" height="24" viewBox="0 0 24 24" fill="none" xmlns="http://www.w3.org/2000/svg">
<path fill-rule="evenodd" clip-rule="evenodd" d="M7.75 10C7.75 7.61421 9.61421 5.75 12 5.75C14.3858 5.75 16.25 7.61421 16.25 10C16.25 10.4142 16.5858 10.75 17 10.75C18.7858 10.75 20.25 12.2142 20.25 14C20.25 14.9148 19.9214 15.6972 19.3061 16.2356L19.2873 16.252L19.2697 16.2697C18.6882 16.8511 17.8718 17.25 17 17.25H7C5.21421 17.25 3.75 15.7858 3.75 14C3.75 13.0852 4.07864 12.3028 4.69388 11.7644L4.71267 11.748L4.73033 11.7303C5.3118 11.1489 6.12815 10.75 7 10.75C7.41421 10.75 7.75 10.4142 7.75 10ZM6.28983 9.30753C6.62391 6.42901 9.02047 4.25 12 4.25C14.978 4.25 17.3737 6.42682 17.7097 9.30318C19.9899 9.64795 21.75 11.6268 21.75 14C21.75 15.277 21.2847 16.4872 20.3128 17.3478C19.4949 18.1574 18.3187 18.75 17 18.75H7C4.38579 18.75 2.25 16.6142 2.25 14C2.25 12.723 2.71533 11.5128 3.68724 10.6522C4.35503 9.99114 5.26174 9.47477 6.28983 9.30753Z" fill="black"/>
</svg>
